T: Corn Riggs
M: 4/4
L: 1/8
K: Gmaj
D2|G2GA B2AG| FEFG A2D2| G2GA BcBA| G2de d2D2|!G2GA B2AG| FEFG A3D| E3D EFGE| D2G2 G2::|!D2|G2d2 BcdB| F2A2 A2D2| G2d2 BcdB| GABc d2D2|!G2d2 edcB| cBAG F3D|  E3D EFGE| D2G2 G2:|
